X: 4
T: The New Mown Meadows
R: reel
M: 4/4
L: 1/8
K: Ddor
AD~D2 ~D2EG | AcBG AGEG | AD~D2 AGEG | ~G2AG EDEG |AD~D2 ~D2EG | AcBG AGEG | c3A ~B3A |GBAG EDEG :| 2 GBAG E~G2B ||d2Bd edBd | dGBG AGEG | d2Bd eddB | GBAG E~G3 |d2Bd edBd | dGBG AGEG | c3A ~B3A | GBAG EGGB :| 2 GBAG EDEG ||


Tune 2706	Setting 15940

